X:14
T:GB/7c/14 Bold General Wolfe 
%%VWML:GB-7c-14-0
F:http://www.vwml.org/record/GB/7c/14
C:Transcribed by Simon Furey and Lewis Jones
L:1/4
M:3/2
I:linebreak $
K:G
D | G D G3/2 A/ B c | d e c3 d | B G c A B G | F E D3 A | c d e c B/A/ G |$ B c d3 d | c B A3/2 B/ c d | B G E2 D2 |[M:1/2] z D |[M:3/2] G3/2 E/ F G A B/A/ | G4- G |]

